X:338
T: Granah Weale
T: Gr\'ainne Mhaol  - Gr\'aine Ua Maille
N: O'Farrell's Pocket Companion v.4 (Sky ed. p.148)
N: "Irish"
M: 6/8
L: 1/8
Q: 120 % "slow"
R: blank
K: Gm % Gdor in PC
B/c/| d>ed cAG/F/| DGG G2A/B/| cAc/d/ cAG| FD=E F2_e/g/|
fed c/B/A/B/c/A/ | d/c/d/e/f/d/ Hg2 {b}a/g/|
f/e/d/e/f/d/ d/c/B/A/G/F/| G2G G2 :|
(3d/e/f/| gdB gdB| G2G G2 (3c/d/e/| fcA fcA| F2F F2G/A/|
B2D D3| c2D D3| d/c/d/e/f/d/ Hg2 {b}a/g/|
f/e/d/e/f/d/ d/c/B/A/G/F/| G2G G2 :|
